X:1
T:Title
%%score 1 2 3
L:1/8
M:3/2
K:F
V:1 treble-8 nm="Part_1"
V:2 bass nm="Part_2"
V:3 bass nm="Part_3"
V:1
 B4 A2 G2 F2 E2 | G4 A2 c4 A2 | G4 A2 F2 B4 | A4 z4 G4 | c6 A2 B4 | c4 c2 A2 G2 F2 | %6
 c2 B2 AG F2 E2 D2 | F4 z4 F4 | G2 A2 c6 B2 | A4 G2 c4 B2 | A2 B4 A2 G2 F2 | A4 z4 c4 | %12
 B4 A2 A2 GF G2 | A4 B2 c4 A2 | G4 z4 G4 | F4 G4 A4 | G4 A2 c2 B2 A2 | c6 B2 G4 | F4 B4 A4 | %19
 A2 B4 A2 G2 F2 | A4 z2 A2 c2 B2 | G4 A4 B4 | G2 A2 B4 A2 d2- | dc B2 AG G3 ^FFE | G4 A2 B4 c2 | %25
 A4 z2 c2 c2 B2 | A2 G2 c2 B4 A2 | A6 G2 G2 F2 | A12 |] %29
V:2
[K:C] F,4 E,2 D,4 C,2 | D,4 F,6 D,2 | E,4 F,4 z4 | F,4 E,2 D,4 C,2 | F,4 E,4 F,4 | G,4 C,4 D,4 | %6
 E,4 z4 G,4 | A,4 A,4 _B,4 | C4 A,6 G,2 | F,4 E,4 z4 | F,4 E,2 D,4 C,2 | F,4 E,4 F,4 | %12
 G,4 E,4 D,4 | E,4 z4 z4 | E,4 D,6 B,,2 | C,4 D,4 F,2 D,2 | E,4 E,4 F,4 | G,8 D,4 | C,4 D,4 F,4 | %19
 F,4 E,4 D,4 | E,8 z4 | D,4 C,4 D,4 | D,4 F,6 _E,2 | D,6 _B,,2 C,4 | D,4 z4 z4 | F,4 G,4 A,4 | %26
 G,4 F,8 | F,4 E,4 D,4 | E,12 |] %29
V:3
[K:C] _B,,4 C,2 G,,2 A,,4 | G,,4 F,,8 | C,4 A,,2 _B,,2 G,,4 | F,,2 A,,4 C,2 _B,,4 | A,,6 C,2 D,4 | %5
 C,4 A,,2 C,2 _B,,4 | A,,8 G,,4 | F,,4 F,2 C,2 D,4 | C,4 F,,8 | A,,4 C,8 | D,4 C,4 _B,,4 | %11
 A,,4 C,2 G,,2 A,,4 | G,,4 C,4 _B,,4 | A,,12 | C,4 B,,8 | A,,4 B,,2 G,,2 F,,4 | C,8 D,4 | %17
 C,8 _B,,4 | A,,4 G,,4 D,4 | D,4 C,4 _B,,4 | A,,12 | _B,,4 A,,4 G,,4 | _B,,2 C,2 D,6 C,2 | %23
 _B,,4 G,,2 B,,2 A,,4 | G,,12 | D,4 C,4 F,,4 | C,4 D,8 | D,4 C,2 A,,2 _B,,4 | A,,12 |] %29

